file/open-english.svg

<?xml version="1.0" encoding="UTF-8" standalone="no"?>
<!DOCTYPE svg PUBLIC "-//W3C//DTD SVG 1.1//EN" "http://www.w3.org/Graphics/SVG/1.1/DTD/svg11.dtd">
<svg width="100%" height="100%" viewBox="0 0 560 400" version="1.1" xmlns="http://www.w3.org/2000/svg" xmlns:xlink="http://www.w3.org/1999/xlink" xml:space="preserve" xmlns:serif="http://www.serif.com/" style="fill-rule:evenodd;clip-rule:evenodd;stroke-linejoin:round;stroke-miterlimit:1.41421;">
    <g transform="matrix(1.38936,0,0,1.38936,-31.1488,-33.4125)">
        <path d="M121.395,154.41L129.405,154.41L129.405,141L129.585,140.91L198.795,128.31L198.795,207.87L121.395,195.09L121.395,202.92L206.715,217.05L206.715,118.95L121.395,134.52L121.395,154.41Z" style="fill:rgb(0,151,255);fill-rule:nonzero;"/>
        <g>
            <path d="M225.075,168L217.245,168L217.245,167.82C217.425,166.38 218.415,163.59 221.385,163.59C224.355,163.59 225.075,166.29 225.075,167.82L225.075,168ZM221.745,158.55C213.105,158.55 209.955,165.84 209.955,170.7C209.955,177.99 214.635,182.4 222.555,182.4C225.795,182.4 228.585,181.95 231.015,180.96L230.025,175.65C228.135,176.19 226.155,176.46 223.815,176.46C220.485,176.46 217.965,175.2 217.695,173.4L217.695,173.22L232.095,173.22C232.185,172.68 232.365,171.51 232.365,170.25C232.275,162.96 228.315,158.55 221.745,158.55Z" style="fill-rule:nonzero;"/>
            <path d="M249.195,158.55C245.145,158.55 242.985,161.16 242.445,161.97L242.355,162.06L241.905,162.06L241.545,159.09L234.615,159.09C234.705,161.88 234.795,164.31 234.795,166.74L234.795,181.86L242.895,181.86L242.895,168.9C242.895,168.09 242.985,167.55 243.165,167.1C243.795,165.66 244.785,164.94 246.135,164.94C247.575,164.94 249.285,165.75 249.285,169.35L249.285,181.77L257.385,181.77L257.385,168.36C257.295,162.06 254.415,158.55 249.195,158.55Z" style="fill-rule:nonzero;"/>
            <path d="M275.565,171.51C275.565,172.05 275.565,172.77 275.385,173.31C275.025,174.75 273.765,175.74 272.235,175.74C269.895,175.74 268.275,173.58 268.275,170.34C268.275,166.29 270.255,164.49 272.235,164.49C273.855,164.49 275.025,165.48 275.385,167.28C275.385,167.64 275.475,168.09 275.475,168.36L275.475,171.51L275.565,171.51ZM276.555,161.52L276.195,161.52L276.105,161.43C274.845,159.54 272.865,158.55 270.255,158.55C264.315,158.55 259.995,163.59 259.995,170.52C259.995,177 263.955,181.59 269.535,181.59C271.965,181.59 273.855,180.69 275.205,179.07L275.295,178.98L275.655,178.98L275.655,180.24C275.655,183.66 273.585,185.64 270.075,185.64C267.555,185.64 265.035,184.83 263.505,184.11L261.975,190.14C264.045,191.13 267.195,191.76 270.345,191.76C274.665,191.76 277.725,190.86 279.975,188.97C282.315,186.9 283.485,183.57 283.485,178.8L283.485,166.2C283.485,162.96 283.575,160.8 283.665,159.27L276.735,159.27L276.555,161.52Z" style="fill-rule:nonzero;"/>
            <rect x="287.535" y="149.91" width="8.1" height="31.95" style="fill-rule:nonzero;"/>
            <path d="M322.185,167.73C319.395,166.83 318.585,166.29 318.585,165.48C318.585,163.95 320.475,163.95 321.105,163.95C322.995,163.95 325.065,164.67 326.145,165.12L327.405,159.72C326.055,159.09 323.625,158.46 320.745,158.46C314.895,158.46 310.935,161.61 310.935,166.2C310.845,169.26 313.275,171.69 317.595,173.04C320.025,173.85 320.745,174.21 320.745,175.2C320.745,176.46 319.305,176.64 318.045,176.64C315.975,176.64 313.185,175.83 311.745,175.02L310.395,180.6C312.375,181.59 315.255,182.13 318.045,182.13C324.525,182.13 328.485,179.34 328.485,174.57C328.395,171.33 326.415,169.17 322.185,167.73Z" style="fill-rule:nonzero;"/>
            <path d="M345.675,158.55C344.505,158.55 343.245,158.82 342.255,159.36C341.265,159.81 340.455,160.53 339.555,161.52L339.465,161.61L339.105,161.61L339.105,150L331.005,150L331.005,181.95L339.105,181.95L339.105,168.54C339.105,168.36 339.105,167.55 339.375,167.1C339.915,165.84 340.905,165.21 342.255,165.21C344.415,165.21 345.405,166.74 345.405,169.8L345.405,182.04L353.505,182.04L353.505,168.81C353.595,162.15 350.805,158.55 345.675,158.55Z" style="fill-rule:nonzero;"/>
            <rect x="299.505" y="158.82" width="8.1" height="22.77" style="fill-rule:nonzero;"/>
            <rect x="299.775" y="149.64" width="7.74" height="6.75" style="fill-rule:nonzero;"/>
            <path d="M106.725,176.73C104.205,176.73 102.765,174.39 102.765,170.43C102.765,166.47 104.205,164.13 106.635,164.13C109.425,164.13 110.415,167.37 110.415,170.43C110.415,174.39 109.065,176.73 106.725,176.73ZM106.995,158.55C99.345,158.55 94.395,163.32 94.395,170.61C94.395,177.63 99.255,182.4 106.455,182.4C115.545,182.4 118.785,175.83 118.785,170.25C118.875,163.23 114.105,158.55 106.995,158.55Z" style="fill-rule:nonzero;"/>
            <path d="M163.065,168L155.235,168L155.235,167.82C155.415,166.38 156.405,163.59 159.375,163.59C162.345,163.59 163.155,166.29 163.155,167.82L163.155,168L163.065,168ZM159.735,158.55C151.095,158.55 147.945,165.84 147.945,170.7C147.945,177.99 152.625,182.4 160.545,182.4C163.785,182.4 166.575,181.95 169.005,180.96L168.015,175.65C166.125,176.19 164.145,176.46 161.805,176.46C159.015,176.46 156.045,175.56 155.685,173.4L155.685,173.22L170.085,173.22C170.175,172.68 170.355,171.51 170.355,170.16C170.175,162.87 166.305,158.55 159.735,158.55Z" style="fill-rule:nonzero;"/>
            <path d="M187.095,158.55C183.045,158.55 180.885,161.16 180.345,161.97L180.255,162.06L179.895,162.06L179.535,159.09L172.605,159.09C172.695,161.07 172.785,163.68 172.785,166.74L172.785,181.86L180.885,181.86L180.885,168.9C180.885,168.09 180.975,167.55 181.155,167.1C181.785,165.66 182.775,164.94 184.125,164.94C185.565,164.94 187.275,165.75 187.275,169.35L187.275,181.77L195.375,181.77L195.375,168.27C195.285,162.06 192.405,158.55 187.095,158.55Z" style="fill-rule:nonzero;"/>
            <path d="M133.095,176.28C131.385,176.28 130.035,175.11 129.585,173.4C129.495,172.95 129.405,172.5 129.405,171.96L129.405,169.08C129.405,168.72 129.405,168.27 129.495,167.91C129.765,166.11 131.385,164.76 133.095,164.76C135.705,164.76 137.235,166.92 137.235,170.52C137.325,174.03 135.615,176.28 133.095,176.28ZM136.245,158.55C133.545,158.55 131.565,159.45 129.765,161.52L129.405,161.88L129.405,159.09L121.305,159.09L121.305,191.4L129.405,191.4L129.405,180.15L129.765,180.15L129.855,180.24C130.575,181.23 132.375,182.4 135.165,182.4C140.115,182.4 145.515,178.62 145.515,170.25C145.605,164.49 142.275,158.55 136.245,158.55Z" style="fill-rule:nonzero;"/>
        </g>
    </g>
</svg>

<svg clip-rule="evenodd" fill-rule="evenodd" stroke-linejoin="round" stroke-miterlimit="1.41421" viewBox="0 0 560 400" xmlns="http://www.w3.org/2000/svg"><g fill-rule="nonzero" transform="matrix(1.38936 0 0 1.38936 -31.1488 -33.4125)"><path d="m121.395 154.41h8.01v-13.41l.18-.09 69.21-12.6v79.56l-77.4-12.78v7.83l85.32 14.13v-98.1l-85.32 15.57z" fill="#0097ff"/><path d="m225.075 168h-7.83v-.18c.18-1.44 1.17-4.23 4.14-4.23s3.69 2.7 3.69 4.23zm-3.33-9.45c-8.64 0-11.79 7.29-11.79 12.15 0 7.29 4.68 11.7 12.6 11.7 3.24 0 6.03-.45 8.46-1.44l-.99-5.31c-1.89.54-3.87.81-6.21.81-3.33 0-5.85-1.26-6.12-3.06v-.18h14.4c.09-.54.27-1.71.27-2.97-.09-7.29-4.05-11.7-10.62-11.7z"/><path d="m249.195 158.55c-4.05 0-6.21 2.61-6.75 3.42l-.09.09h-.45l-.36-2.97h-6.93c.09 2.79.18 5.22.18 7.65v15.12h8.1v-12.96c0-.81.09-1.35.27-1.8.63-1.44 1.62-2.16 2.97-2.16 1.44 0 3.15.81 3.15 4.41v12.42h8.1v-13.41c-.09-6.3-2.97-9.81-8.19-9.81z"/><path d="m275.565 171.51c0 .54 0 1.26-.18 1.8-.36 1.44-1.62 2.43-3.15 2.43-2.34 0-3.96-2.16-3.96-5.4 0-4.05 1.98-5.85 3.96-5.85 1.62 0 2.79.99 3.15 2.79 0 .36.09.81.09 1.08v3.15zm.99-9.99h-.36l-.09-.09c-1.26-1.89-3.24-2.88-5.85-2.88-5.94 0-10.26 5.04-10.26 11.97 0 6.48 3.96 11.07 9.54 11.07 2.43 0 4.32-.9 5.67-2.52l.09-.09h.36v1.26c0 3.42-2.07 5.4-5.58 5.4-2.52 0-5.04-.81-6.57-1.53l-1.53 6.03c2.07.99 5.22 1.62 8.37 1.62 4.32 0 7.38-.9 9.63-2.79 2.34-2.07 3.51-5.4 3.51-10.17v-12.6c0-3.24.09-5.4.18-6.93h-6.93z"/><path d="m287.535 149.91h8.1v31.95h-8.1z"/><path d="m322.185 167.73c-2.79-.9-3.6-1.44-3.6-2.25 0-1.53 1.89-1.53 2.52-1.53 1.89 0 3.96.72 5.04 1.17l1.26-5.4c-1.35-.63-3.78-1.26-6.66-1.26-5.85 0-9.81 3.15-9.81 7.74-.09 3.06 2.34 5.49 6.66 6.84 2.43.81 3.15 1.17 3.15 2.16 0 1.26-1.44 1.44-2.7 1.44-2.07 0-4.86-.81-6.3-1.62l-1.35 5.58c1.98.99 4.86 1.53 7.65 1.53 6.48 0 10.44-2.79 10.44-7.56-.09-3.24-2.07-5.4-6.3-6.84z"/><path d="m345.675 158.55c-1.17 0-2.43.27-3.42.81-.99.45-1.8 1.17-2.7 2.16l-.09.09h-.36v-11.61h-8.1v31.95h8.1v-13.41c0-.18 0-.99.27-1.44.54-1.26 1.53-1.89 2.88-1.89 2.16 0 3.15 1.53 3.15 4.59v12.24h8.1v-13.23c.09-6.66-2.7-10.26-7.83-10.26z"/><path d="m299.505 158.82h8.1v22.77h-8.1z"/><path d="m299.775 149.64h7.74v6.75h-7.74z"/><path d="m106.725 176.73c-2.52 0-3.96-2.34-3.96-6.3s1.44-6.3 3.87-6.3c2.79 0 3.78 3.24 3.78 6.3 0 3.96-1.35 6.3-3.69 6.3zm.27-18.18c-7.65 0-12.6 4.77-12.6 12.06 0 7.02 4.86 11.79 12.06 11.79 9.09 0 12.33-6.57 12.33-12.15.09-7.02-4.68-11.7-11.79-11.7z"/><path d="m163.065 168h-7.83v-.18c.18-1.44 1.17-4.23 4.14-4.23s3.78 2.7 3.78 4.23v.18zm-3.33-9.45c-8.64 0-11.79 7.29-11.79 12.15 0 7.29 4.68 11.7 12.6 11.7 3.24 0 6.03-.45 8.46-1.44l-.99-5.31c-1.89.54-3.87.81-6.21.81-2.79 0-5.76-.9-6.12-3.06v-.18h14.4c.09-.54.27-1.71.27-3.06-.18-7.29-4.05-11.61-10.62-11.61z"/><path d="m187.095 158.55c-4.05 0-6.21 2.61-6.75 3.42l-.09.09h-.36l-.36-2.97h-6.93c.09 1.98.18 4.59.18 7.65v15.12h8.1v-12.96c0-.81.09-1.35.27-1.8.63-1.44 1.62-2.16 2.97-2.16 1.44 0 3.15.81 3.15 4.41v12.42h8.1v-13.5c-.09-6.21-2.97-9.72-8.28-9.72z"/><path d="m133.095 176.28c-1.71 0-3.06-1.17-3.51-2.88-.09-.45-.18-.9-.18-1.44v-2.88c0-.36 0-.81.09-1.17.27-1.8 1.89-3.15 3.6-3.15 2.61 0 4.14 2.16 4.14 5.76.09 3.51-1.62 5.76-4.14 5.76zm3.15-17.73c-2.7 0-4.68.9-6.48 2.97l-.36.36v-2.79h-8.1v32.31h8.1v-11.25h.36l.09.09c.72.99 2.52 2.16 5.31 2.16 4.95 0 10.35-3.78 10.35-12.15.09-5.76-3.24-11.7-9.27-11.7z"/></g></svg>
